assets/efishery/box-container-fill.svg

<svg width="24" height="25" viewBox="0 0 24 25" fill="none" xmlns="http://www.w3.org/2000/svg">
<path fill-rule="evenodd" clip-rule="evenodd" d="M2 8.02344C2 7.05694 2.7835 6.27344 3.75 6.27344H19.75C20.7165 6.27344 21.5 7.05694 21.5 8.02344V8.47798C21.5 9.4413 20.7216 10.2228 19.7595 10.228L19.7016 10.6143H19.9318C20.6598 10.6143 21.25 11.2045 21.25 11.9325C21.25 12.6605 20.6598 13.2507 19.9318 13.2507H19.3061L18.6281 17.7711C18.573 18.1382 18.2576 18.4098 17.8864 18.4098H5.61364C5.24239 18.4098 4.927 18.1382 4.87193 17.7711L4.19388 13.2507H3.56818C2.84017 13.2507 2.25 12.6605 2.25 11.9325C2.25 11.2045 2.84017 10.6143 3.56818 10.6143H3.79843L3.74047 10.228C2.77836 10.2228 2 9.4413 2 8.47798V8.02344ZM3.56818 11.6143H3.94843L4.04388 12.2507H3.56818C3.39246 12.2507 3.25 12.1083 3.25 11.9325C3.25 11.7568 3.39246 11.6143 3.56818 11.6143ZM19.4561 12.2507H19.9318C20.1075 12.2507 20.25 12.1083 20.25 11.9325C20.25 11.7568 20.1075 11.6143 19.9318 11.6143H19.5516L19.4561 12.2507ZM8.95455 10.228V11.5234C8.95455 13.0673 10.2061 14.3189 11.75 14.3189C13.2939 14.3189 14.5455 13.0673 14.5455 11.5234V10.228L13.0455 10.228V11.5234C13.0455 12.2389 12.4655 12.8189 11.75 12.8189C11.0345 12.8189 10.4545 12.2389 10.4545 11.5234V10.228L8.95455 10.228Z" fill="#1D1D1D"/>
</svg>

<svg viewBox="0 0 24 25" xmlns="http://www.w3.org/2000/svg">
  <path fill-rule="evenodd" clip-rule="evenodd" d="M2 8.023c0-.966.784-1.75 1.75-1.75h16c.966 0 1.75.784 1.75 1.75v.455a1.75 1.75 0 0 1-1.74 1.75l-.058.386h.23a1.318 1.318 0 0 1 0 2.637h-.626l-.678 4.52a.75.75 0 0 1-.742.639H5.614a.75.75 0 0 1-.742-.639l-.678-4.52h-.626a1.318 1.318 0 0 1 0-2.637h.23l-.058-.386A1.75 1.75 0 0 1 2 8.478v-.455zm1.568 3.591h.38l.096.637h-.476a.318.318 0 1 1 0-.637zm15.888.637h.476a.318.318 0 1 0 0-.637h-.38l-.096.637zM8.955 10.228v1.295a2.795 2.795 0 1 0 5.59 0v-1.295h-1.5v1.295a1.295 1.295 0 1 1-2.59 0v-1.295h-1.5z"/>
</svg>
